tools/download-figma-icons/icons/solid/thumbs-down.svg

<svg width="25" height="24" viewBox="0 0 25 24" fill="none" xmlns="http://www.w3.org/2000/svg">
<path fill-rule="evenodd" clip-rule="evenodd" d="M21.8548 3.6L23.9773 11.625C24.1573 12.5475 23.4523 13.5 22.5073 13.5H15.7498V19.875C15.7498 20.91 14.9098 21.75 13.8748 21.75C13.3573 21.75 12.8848 21.54 12.548 21.2025C12.2105 20.865 11.9998 20.3925 11.9998 19.875C11.9998 17.625 11.8123 16.035 11.1598 15C10.4998 13.965 9.37476 13.5 7.49976 13.5C7.08727 13.5 6.74976 13.1625 6.74976 12.75V3.75C6.74976 3.3375 7.08727 3 7.49976 3H21.1198C21.4798 3 21.7873 3.255 21.8548 3.6ZM0.75 2.25H4.5C4.91475 2.25 5.25 2.58525 5.25 3V13.5C5.25 13.9148 4.91475 14.25 4.5 14.25H0.75C0.33525 14.25 0 13.9148 0 13.5V3C0 2.58525 0.33525 2.25 0.75 2.25Z" fill="black"/>
</svg>

<svg xmlns="http://www.w3.org/2000/svg" width="25" height="24" fill="none" viewBox="0 0 25 24"><path fill="currentColor" fill-rule="evenodd" d="m21.855 3.6 2.122 8.025c.18.922-.525 1.875-1.47 1.875H15.75v6.375a1.876 1.876 0 0 1-3.75 0c0-2.25-.188-3.84-.84-4.875-.66-1.035-1.785-1.5-3.66-1.5a.75.75 0 0 1-.75-.75v-9c0-.413.337-.75.75-.75h13.62c.36 0 .667.255.735.6M.75 2.25H4.5a.75.75 0 0 1 .75.75v10.5a.75.75 0 0 1-.75.75H.75A.75.75 0 0 1 0 13.5V3a.75.75 0 0 1 .75-.75" clip-rule="evenodd"/></svg>
